ic16/ic16__x-circle.svg

<svg fill="none" height="16" width="16" xmlns="http://www.w3.org/2000/svg" xmlns:xlink="http://www.w3.org/1999/xlink"><clipPath id="a"><path d="m0 0h16v16h-16z"/></clipPath><g clip-path="url(#a)"><path clip-rule="evenodd" d="m3.404 12.596a6.5 6.5 0 1 1 9.192-9.192 6.5 6.5 0 0 1 -9.192 9.192zm-1.06-10.253a8 8 0 1 0 11.313 11.314 8 8 0 0 0 -11.314-11.314zm3.686 2.627a.75.75 0 0 0 -1.06 1.06l1.97 1.97-1.97 1.97a.75.75 0 1 0 1.06 1.06l1.97-1.97 1.97 1.97a.75.75 0 1 0 1.06-1.06l-1.97-1.97 1.97-1.97a.75.75 0 1 0 -1.06-1.06l-1.97 1.97z" fill-rule="evenodd"/></g></svg>

<svg width="16" height="16" viewBox="0 0 16 16" fill="none" xmlns="http://www.w3.org/2000/svg">
  <g clip-path="url(#ic16__x-circle__clip0)">
    <path fill-rule="evenodd" clip-rule="evenodd" d="M3.404 12.596a6.5 6.5 0 119.192-9.192 6.5 6.5 0 01-9.192 9.192zM2.344 2.343a8 8 0 1011.313 11.314A8 8 0 002.343 2.343zM6.03 4.97a.75.75 0 00-1.06 1.06L6.94 8 4.97 9.97a.75.75 0 101.06 1.06L8 9.06l1.97 1.97a.75.75 0 101.06-1.06L9.06 8l1.97-1.97a.75.75 0 10-1.06-1.06L8 6.94 6.03 4.97z" />
  </g>
  <defs>
    <clipPath id="ic16__x-circle__clip0">
      <path fill="#fff" d="M0 0h16v16H0z"/>
    </clipPath>
  </defs>
</svg>
